img/services-icon-5.svg

<svg width="141" height="122" viewBox="0 0 141 122" fill="none" xmlns="http://www.w3.org/2000/svg">
<path d="M26.7996 1.31995C27.0496 38.9199 26.3896 77.6099 26.6396 115.21H51.3696L52.3696 1.31995H26.7996Z" fill="white"/>
<path d="M51.38 116.06H26.65C26.18 116.06 25.8 115.68 25.8 115.21C25.68 96.41 25.78 77.02 25.88 58.27C25.98 39.51 26.08 20.12 25.96 1.31996C25.96 1.08996 26.05 0.869961 26.21 0.709961C26.37 0.549961 26.59 0.459961 26.81 0.459961H52.38C52.61 0.459961 52.83 0.549961 52.99 0.709961C53.15 0.869961 53.24 1.08996 53.24 1.31996L52.25 115.21C52.23 115.68 51.85 116.06 51.38 116.06ZM27.49 114.36H50.53L51.51 2.16996H27.66C27.78 20.71 27.67 39.81 27.58 58.29C27.48 76.75 27.38 95.83 27.49 114.36Z" fill="#252424"/>
<path d="M26.8494 30.01L52.1194 29.85L51.6594 82.48L26.6094 82.55L26.8494 30.01Z" fill="white"/>
<path d="M26.6098 83.41C26.3798 83.41 26.1698 83.32 26.0098 83.16C25.8498 83 25.7598 82.78 25.7598 82.55L25.9898 30.01C25.9898 29.54 26.3698 29.16 26.8398 29.16L52.1198 29C52.3398 28.99 52.5698 29.09 52.7298 29.25C52.8898 29.41 52.9798 29.63 52.9798 29.86L52.5198 82.48C52.5198 82.95 52.1398 83.32 51.6698 83.33L26.6098 83.41ZM27.6998 30.86L27.4698 81.7L50.8198 81.63L51.2598 30.71L27.6998 30.86Z" fill="#252424"/>
<path d="M34.8604 98.5199C34.8604 96.0599 36.8504 94.0699 39.3104 94.0699C41.7704 94.0699 43.7603 96.0599 43.7603 98.5199C43.7603 100.98 41.7704 102.97 39.3104 102.97C36.8504 102.97 34.8604 100.98 34.8604 98.5199Z" fill="white"/>
<path d="M39.31 103.82C36.38 103.82 34 101.44 34 98.51C34 95.58 36.38 93.2 39.31 93.2C42.24 93.2 44.62 95.58 44.62 98.51C44.62 101.44 42.24 103.82 39.31 103.82ZM39.31 94.91C37.32 94.91 35.71 96.53 35.71 98.51C35.71 100.49 37.33 102.11 39.31 102.11C41.3 102.11 42.91 100.49 42.91 98.51C42.91 96.53 41.3 94.91 39.31 94.91Z" fill="#252424"/>
<path d="M57.4998 1.31995C57.7498 38.9199 57.0898 77.6099 57.3398 115.21H82.0698L83.0698 1.31995H57.4998Z" fill="white"/>
<path d="M82.0797 116.06H57.3497C56.8797 116.06 56.4997 115.68 56.4997 115.21C56.3697 96.4 56.4797 77.0099 56.5797 58.25C56.6797 39.5 56.7797 20.11 56.6597 1.30995C56.6597 1.07995 56.7497 0.859951 56.9097 0.699951C57.0697 0.539951 57.2897 0.449951 57.5097 0.449951H83.0797C83.3097 0.449951 83.5297 0.539951 83.6897 0.699951C83.8497 0.859951 83.9397 1.07995 83.9397 1.30995L82.9497 115.2C82.9297 115.68 82.5497 116.06 82.0797 116.06ZM58.1897 114.36H81.2297L82.2097 2.16995H58.3597C58.4797 20.71 58.3797 39.7999 58.2797 58.27C58.1797 76.74 58.0797 95.83 58.1897 114.36Z" fill="#252424"/>
<path d="M57.5496 30.01L82.8196 29.85L82.3596 82.48L57.3096 82.55L57.5496 30.01Z" fill="#6BA8C9"/>
<path d="M57.31 83.41C57.08 83.41 56.87 83.32 56.71 83.16C56.55 83 56.46 82.78 56.46 82.55L56.69 30.01C56.69 29.54 57.07 29.16 57.54 29.16L82.82 29C83.06 28.99 83.27 29.09 83.43 29.25C83.59 29.41 83.68 29.63 83.68 29.86L83.22 82.48C83.22 82.95 82.84 83.32 82.37 83.33L57.31 83.41C57.32 83.41 57.31 83.41 57.31 83.41ZM58.4 30.86L58.17 81.7L81.52 81.63L81.96 30.71L58.4 30.86Z" fill="#252424"/>
<path d="M65.5605 98.5199C65.5605 96.0599 67.5506 94.0699 70.0106 94.0699C72.4706 94.0699 74.4605 96.0599 74.4605 98.5199C74.4605 100.98 72.4706 102.97 70.0106 102.97C67.5506 102.97 65.5605 100.98 65.5605 98.5199Z" fill="white"/>
<path d="M70.0102 103.82C67.0802 103.82 64.7002 101.44 64.7002 98.51C64.7002 95.58 67.0802 93.2 70.0102 93.2C72.9402 93.2 75.3202 95.58 75.3202 98.51C75.3202 101.44 72.9402 103.82 70.0102 103.82ZM70.0102 94.91C68.0202 94.91 66.4102 96.53 66.4102 98.51C66.4102 100.49 68.0302 102.11 70.0102 102.11C72.0002 102.11 73.6102 100.49 73.6102 98.51C73.6102 96.53 72.0002 94.91 70.0102 94.91Z" fill="#252424"/>
<path d="M88.2 1.31995C88.45 38.9199 87.79 77.6099 88.04 115.21H112.77L113.76 1.31995H88.2Z" fill="white"/>
<path d="M112.78 116.06H88.0499C87.5799 116.06 87.1999 115.68 87.1999 115.21C87.0699 96.4 87.1799 77.0099 87.2799 58.25C87.3799 39.5 87.4799 20.11 87.3599 1.30995C87.3599 1.07995 87.4499 0.859951 87.6099 0.699951C87.7699 0.539951 87.9899 0.449951 88.2199 0.449951H113.79C114.02 0.449951 114.24 0.539951 114.4 0.699951C114.56 0.859951 114.65 1.07995 114.65 1.30995L113.66 115.2C113.63 115.68 113.25 116.06 112.78 116.06ZM88.8899 114.36H111.93L112.91 2.16995H89.0599C89.1799 20.71 89.0699 39.7999 88.9799 58.27C88.8799 76.74 88.7799 95.83 88.8899 114.36Z" fill="#252424"/>
<path d="M88.2498 30.01L113.52 29.85L113.06 82.48L88.0098 82.55L88.2498 30.01Z" fill="white"/>
<path d="M88.0102 83.41C87.7802 83.41 87.5702 83.32 87.4102 83.16C87.2502 83 87.1602 82.78 87.1602 82.55L87.3902 30.01C87.3902 29.54 87.7702 29.16 88.2402 29.16L113.52 29C113.52 29 113.52 29 113.53 29C113.76 29 113.97 29.09 114.13 29.25C114.29 29.41 114.38 29.63 114.38 29.86L113.92 82.48C113.92 82.95 113.54 83.32 113.07 83.33L88.0102 83.41C88.0202 83.41 88.0102 83.41 88.0102 83.41ZM89.1002 30.86L88.8702 81.7L112.22 81.63L112.66 30.71L89.1002 30.86Z" fill="#252424"/>
<path d="M96.2607 98.5199C96.2607 96.0599 98.2507 94.0699 100.711 94.0699C103.171 94.0699 105.161 96.0599 105.161 98.5199C105.161 100.98 103.171 102.97 100.711 102.97C98.2507 102.97 96.2607 100.98 96.2607 98.5199Z" fill="white"/>
<path d="M100.71 103.82C97.7804 103.82 95.4004 101.44 95.4004 98.51C95.4004 95.58 97.7804 93.2 100.71 93.2C103.64 93.2 106.02 95.58 106.02 98.51C106.02 101.44 103.64 103.82 100.71 103.82ZM100.71 94.91C98.7204 94.91 97.1104 96.53 97.1104 98.51C97.1104 100.49 98.7304 102.11 100.71 102.11C102.7 102.11 104.31 100.49 104.31 98.51C104.31 96.53 102.7 94.91 100.71 94.91Z" fill="#252424"/>
<path d="M114.01 121.33C76.31 121.33 38.36 120.89 0.839964 120.01C0.369964 120 -3.63635e-05 119.61 0.00996364 119.14C0.0199636 118.67 0.399964 118.31 0.879964 118.31C46.75 119.38 93.27 119.8 139.17 119.56C139.64 119.56 140.02 119.94 140.02 120.41C140.02 120.88 139.64 121.26 139.17 121.27C130.8 121.31 122.41 121.33 114.01 121.33Z" fill="#252424"/>
<path d="M91.3296 40.37C91.2796 40.37 91.2196 40.35 91.1696 40.32C91.0396 40.23 90.9996 40.06 91.0896 39.93C92.8896 37.25 94.8096 34.6 96.7996 32.05C96.8996 31.93 97.0796 31.91 97.1996 32C97.3196 32.1 97.3396 32.28 97.2496 32.4C95.2596 34.93 93.3496 37.57 91.5596 40.24C91.5096 40.33 91.4196 40.37 91.3296 40.37Z" fill="#252424"/>
<path d="M90.6596 49.6899C90.6096 49.6899 90.5496 49.6699 90.4996 49.6399C90.3696 49.5499 90.3296 49.3799 90.4196 49.2499L101.81 32.0699C101.9 31.9399 102.07 31.9099 102.2 31.9899C102.33 32.0799 102.37 32.2499 102.28 32.3799L90.8896 49.5699C90.8396 49.6499 90.7496 49.6899 90.6596 49.6899Z" fill="#252424"/>
<path d="M90.98 57.1099C90.92 57.1099 90.87 57.0899 90.82 57.0599C90.69 56.9699 90.66 56.7899 90.75 56.6699L107.26 32.4399C107.35 32.3099 107.53 32.2799 107.65 32.3599C107.78 32.4499 107.81 32.6299 107.72 32.7499L91.21 56.9799C91.16 57.0599 91.07 57.1099 90.98 57.1099Z" fill="#252424"/>
<path d="M91.33 64.83C91.27 64.83 91.21 64.81 91.16 64.77C91.04 64.67 91.01 64.5 91.11 64.37C97.8 55.59 104.25 46.45 110.28 37.21C110.37 37.08 110.54 37.04 110.67 37.13C110.8 37.22 110.84 37.39 110.75 37.52C104.71 46.77 98.25 55.92 91.55 64.71C91.5 64.79 91.41 64.83 91.33 64.83Z" fill="#252424"/>
<path d="M90.8302 74.12C90.7702 74.12 90.7102 74.1 90.6602 74.07C90.5302 73.98 90.5101 73.8 90.6001 73.67L109.5 47.85C109.59 47.72 109.77 47.7 109.9 47.79C110.03 47.88 110.05 48.06 109.96 48.19L91.0601 74C91.0101 74.08 90.9202 74.12 90.8302 74.12Z" fill="#252424"/>
<path d="M92.0497 79.6599C91.9897 79.6599 91.9297 79.6399 91.8797 79.5999C91.7597 79.4999 91.7297 79.3299 91.8297 79.1999L109.51 56.3399C109.61 56.2199 109.79 56.1899 109.91 56.2899C110.03 56.3899 110.06 56.5599 109.96 56.6899L92.2697 79.5499C92.2197 79.6299 92.1297 79.6599 92.0497 79.6599Z" fill="#252424"/>
<path d="M96.9901 80.52C96.9301 80.52 96.8601 80.5 96.8101 80.46C96.6901 80.36 96.6701 80.18 96.7701 80.06L109.38 64.48C109.48 64.36 109.66 64.34 109.78 64.44C109.9 64.54 109.92 64.72 109.82 64.84L97.2201 80.41C97.1601 80.48 97.0801 80.52 96.9901 80.52Z" fill="#252424"/>
<path d="M102.96 80.27C102.89 80.27 102.83 80.25 102.77 80.2C102.65 80.1 102.64 79.92 102.74 79.8L110.29 71.1C110.39 70.98 110.57 70.97 110.69 71.07C110.81 71.17 110.82 71.35 110.72 71.47L103.17 80.17C103.12 80.23 103.04 80.27 102.96 80.27Z" fill="#252424"/>
<path d="M108.52 80.11C108.46 80.11 108.39 80.09 108.34 80.05C108.22 79.95 108.2 79.77 108.3 79.65L110.59 76.85C110.69 76.73 110.87 76.71 110.99 76.81C111.11 76.91 111.13 77.09 111.03 77.21L108.74 80.01C108.68 80.07 108.6 80.11 108.52 80.11Z" fill="#252424"/>
<g opacity="0.1294">
<path d="M47.5295 113.48C47.5295 113.46 47.5295 113.44 47.5195 113.43C47.5195 113.45 47.5295 113.47 47.5295 113.5C47.5295 113.49 47.5295 113.49 47.5295 113.48C47.5295 113.49 47.5295 113.48 47.5295 113.48Z" fill="#252424"/>
</g>
<g opacity="0.1294">
<path d="M52.2398 10.02C52.2098 7.18997 52.2198 4.34997 52.1998 1.51997C52.1998 1.10997 52.0398 0.729966 51.7498 0.439966C50.8498 -0.500034 49.0998 0.189966 49.1398 1.51997C49.1098 15.95 48.7298 30.37 48.4398 44.79C48.1698 50.69 48.0298 56.58 47.7598 62.48C47.7398 68.01 47.6398 73.54 47.5898 79.07C47.4298 85.21 47.4298 91.37 47.1098 97.5C46.8898 101.39 47.2098 105.29 47.2498 109.18C47.3198 111.22 47.3298 112.22 47.5198 113.43C47.5198 113.39 47.5098 113.36 47.5098 113.32C47.5198 113.37 47.5298 113.43 47.5298 113.48V113.49C47.5298 113.51 47.5398 113.53 47.5398 113.54C47.5398 113.57 47.5498 113.61 47.5498 113.64C47.5398 113.61 47.5398 113.55 47.5298 113.49C47.5298 113.52 47.5298 113.6 47.5298 113.75C47.5298 113.96 47.5098 114.17 47.4998 114.39C47.4498 114.93 47.6098 115.49 47.9998 115.88C49.0598 117 51.1198 116.12 50.9998 114.56C50.9898 114.38 50.9698 114.18 50.9098 113.99C50.8698 113.74 50.8298 113.5 50.7798 113.25C50.7598 113.04 50.7198 112.66 50.7198 112.47C50.7198 112.41 50.7198 112.38 50.7198 112.36C50.7198 112.31 50.7298 112.27 50.7298 112.22C51.0098 108.41 50.8998 104.58 50.8298 100.77C50.8898 96.92 50.7998 93.08 50.7998 89.23C50.9698 76.63 51.0998 64.02 51.4898 51.43C51.7398 45.92 52.1698 40.43 52.0998 34.91C52.2998 26.61 52.3698 18.31 52.2398 10.02Z" fill="#252424"/>
</g>
<g opacity="0.1294">
<path d="M82.7704 7.48997C82.7604 5.61997 82.7604 3.73997 82.7504 1.86997C82.7504 1.42997 82.5704 1.00997 82.2604 0.699974C81.2904 -0.320026 79.3804 0.429974 79.4304 1.86997C79.3704 14.25 79.4104 26.63 79.1904 39.01C79.2004 43.12 79.4204 47.22 79.4704 51.33C79.4804 54.83 79.2404 58.33 79.2204 61.82C79.2204 68.69 78.8604 75.55 78.3204 82.4C78.0904 89.23 78.0004 96.06 78.0804 102.89C78.0804 105.8 78.0304 108.71 78.0704 111.62C78.1504 113.12 78.1704 113.03 78.6004 114.99C78.6904 115.48 78.9604 115.93 79.3904 116.17C80.5604 116.89 82.1404 115.7 81.7304 114.37C81.2404 112.36 81.2604 112.57 81.2904 110.68C81.3204 99.19 81.0404 87.66 82.0404 76.21C82.3404 71.18 82.2404 66.14 82.3604 61.11C82.7804 55.09 82.6304 49.05 82.5604 43.02C82.8004 31.19 82.8804 19.34 82.7704 7.48997Z" fill="#252424"/>
</g>
<g opacity="0.1294">
<path d="M40.0403 95.1599C40.0903 93.7799 38.2503 93.0299 37.3103 94.0299C35.8203 95.5099 34.5603 97.4699 34.8203 99.6599C34.8503 101.78 38.0103 101.78 38.0503 99.6599C37.8503 98.2399 38.5303 97.6199 38.7803 97.1799C39.2603 96.5499 40.0603 96.0399 40.0403 95.1599Z" fill="#252424"/>
</g>
<g opacity="0.1294">
<path d="M70.0001 94.1999C68.0801 94.8999 66.4101 96.4099 65.9201 98.4499C65.7501 99.3299 65.4801 100.43 66.2101 101.13C67.0501 102.01 68.6501 101.59 68.9401 100.41C69.3101 98.9099 69.0801 99.3699 69.7001 98.3999C69.7101 98.3799 69.7301 98.3699 69.7501 98.3499C69.8901 98.1999 70.0501 98.0699 70.2101 97.9399C70.8501 97.4799 71.7601 97.3999 72.2301 96.7499C73.4201 95.2999 71.5901 93.2399 70.0001 94.1999Z" fill="#252424"/>
</g>
<g opacity="0.1294">
<path d="M99.4498 94.1899C98.3798 95.5399 97.2898 96.9399 96.9198 98.6599C96.4298 100.97 99.7898 101.47 100.09 99.1299C100.42 98.1599 100.3 98.3799 101.16 97.1099C101.54 96.4699 102.27 95.9599 102.35 95.1899C102.65 93.5399 100.26 92.7299 99.4498 94.1899Z" fill="#252424"/>
</g>
<g opacity="0.1294">
<path d="M112.48 102.02C112.52 94.8899 112.44 87.7499 112.46 80.6099C112.45 77.1299 112.4 73.6499 112.28 70.1699C112.19 69.3999 112.32 68.5799 112.24 67.8099C112.27 66.5699 112.3 65.3299 112.35 64.0899C112.36 57.5199 112.35 50.9399 112.67 44.3799C113.01 36.8399 112.94 29.2799 113.04 21.7299C113.08 17.5799 113.43 13.4399 113.35 9.29993C113.3 7.39993 113.25 5.50993 113.16 3.60993C113.05 2.71993 113.3 1.67993 112.61 0.989929C111.65 -0.0200714 109.76 0.719929 109.81 2.14993C110.18 8.63993 109.69 15.1299 109.51 21.6199C109.39 27.1999 109.58 32.7799 109.43 38.3599C109.17 46.6899 109.14 55.0199 109.18 63.3499C109.14 64.5199 109.12 65.6799 109.09 66.8499C108.93 67.0999 108.83 67.3999 108.84 67.7599C108.89 70.4699 108.94 73.1799 108.97 75.8899C108.97 78.6199 109.01 81.3599 109.06 84.0899C109.14 94.2699 109.09 104.45 108.84 114.62C108.81 115.72 109.95 116.57 111 116.26C111.36 116.16 111.61 115.98 111.8 115.76C112.08 115.71 112.34 115.59 112.54 115.37C113.52 114.35 112.97 111.04 112.84 107.83C112.67 105.89 112.55 103.96 112.48 102.02Z" fill="#252424"/>
</g>
</svg>

<svg width="141" height="122" fill="none" xmlns="http://www.w3.org/2000/svg"><path d="M26.8 1.32c.25 37.6-.41 76.29-.16 113.89h24.73l1-113.89H26.8z" fill="#fff"/><path d="M51.38 116.06H26.65a.85.85 0 01-.85-.85c-.12-18.8-.02-38.19.08-56.94.1-18.76.2-38.15.08-56.95a.857.857 0 01.85-.86h25.57c.23 0 .45.09.61.25.16.16.25.38.25.61l-.99 113.89a.88.88 0 01-.87.85zm-23.89-1.7h23.04l.98-112.19H27.66c.12 18.54.01 37.64-.08 56.12-.1 18.46-.2 37.54-.09 56.07z" fill="#252424"/><path d="M26.85 30.01l25.27-.16-.46 52.63-25.05.07.24-52.54z" fill="#fff"/><path d="M26.61 83.41a.84.84 0 01-.6-.25.862.862 0 01-.25-.61l.23-52.54c0-.47.38-.85.85-.85L52.12 29c.22-.01.45.09.61.25.16.16.25.38.25.61l-.46 52.62c0 .47-.38.84-.85.85l-25.06.08zm1.09-52.55l-.23 50.84 23.35-.07.44-50.92-23.56.15z" fill="#252424"/><path d="M34.86 98.52c0-2.46 1.99-4.45 4.45-4.45s4.45 1.99 4.45 4.45-1.99 4.45-4.45 4.45-4.45-1.99-4.45-4.45z" fill="#fff"/><path d="M39.31 103.82c-2.93 0-5.31-2.38-5.31-5.31 0-2.93 2.38-5.31 5.31-5.31 2.93 0 5.31 2.38 5.31 5.31 0 2.93-2.38 5.31-5.31 5.31zm0-8.91c-1.99 0-3.6 1.62-3.6 3.6s1.62 3.6 3.6 3.6c1.99 0 3.6-1.62 3.6-3.6s-1.61-3.6-3.6-3.6z" fill="#252424"/><path d="M57.5 1.32c.25 37.6-.41 76.29-.16 113.89h24.73l1-113.89H57.5z" fill="#fff"/><path d="M82.08 116.06H57.35a.85.85 0 01-.85-.85c-.13-18.81-.02-38.2.08-56.96.1-18.75.2-38.14.08-56.94a.857.857 0 01.85-.86h25.57c.23 0 .45.09.61.25.16.16.25.38.25.61l-.99 113.89c-.02.48-.4.86-.87.86zm-23.89-1.7h23.04l.98-112.19H58.36c.12 18.54.02 37.63-.08 56.1s-.2 37.56-.09 56.09z" fill="#252424"/><path d="M57.55 30.01l25.27-.16-.46 52.63-25.05.07.24-52.54z" fill="#6BA8C9"/><path d="M57.31 83.41a.84.84 0 01-.6-.25.862.862 0 01-.25-.61l.23-52.54c0-.47.38-.85.85-.85L82.82 29c.24-.01.45.09.61.25.16.16.25.38.25.61l-.46 52.62c0 .47-.38.84-.85.85l-25.06.08c.01 0 0 0 0 0zm1.09-52.55l-.23 50.84 23.35-.07.44-50.92-23.56.15z" fill="#252424"/><path d="M65.56 98.52c0-2.46 1.99-4.45 4.45-4.45s4.45 1.99 4.45 4.45-1.99 4.45-4.45 4.45-4.45-1.99-4.45-4.45z" fill="#fff"/><path d="M70.01 103.82c-2.93 0-5.31-2.38-5.31-5.31 0-2.93 2.38-5.31 5.31-5.31 2.93 0 5.31 2.38 5.31 5.31 0 2.93-2.38 5.31-5.31 5.31zm0-8.91c-1.99 0-3.6 1.62-3.6 3.6s1.62 3.6 3.6 3.6c1.99 0 3.6-1.62 3.6-3.6s-1.61-3.6-3.6-3.6z" fill="#252424"/><path d="M88.2 1.32c.25 37.6-.41 76.29-.16 113.89h24.73l.99-113.89H88.2z" fill="#fff"/><path d="M112.78 116.06H88.05a.85.85 0 01-.85-.85c-.13-18.81-.02-38.2.08-56.96.1-18.75.2-38.14.08-56.94 0-.23.09-.45.25-.61.16-.16.38-.25.61-.25h25.57c.23 0 .45.09.61.25.16.16.25.38.25.61l-.99 113.89c-.03.48-.41.86-.88.86zm-23.89-1.7h23.04l.98-112.19H89.06c.12 18.54.01 37.63-.08 56.1-.1 18.47-.2 37.56-.09 56.09z" fill="#252424"/><path d="M88.25 30.01l25.27-.16-.46 52.63-25.05.07.24-52.54z" fill="#fff"/><path d="M88.01 83.41a.84.84 0 01-.6-.25.862.862 0 01-.25-.61l.23-52.54c0-.47.38-.85.85-.85l25.28-.16h.01c.23 0 .44.09.6.25.16.16.25.38.25.61l-.46 52.62c0 .47-.38.84-.85.85l-25.06.08c.01 0 0 0 0 0zm1.09-52.55l-.23 50.84 23.35-.07.44-50.92-23.56.15z" fill="#252424"/><path d="M96.26 98.52c0-2.46 1.99-4.45 4.451-4.45 2.46 0 4.45 1.99 4.45 4.45s-1.99 4.45-4.45 4.45-4.45-1.99-4.45-4.45z" fill="#fff"/><path d="M100.71 103.82c-2.93 0-5.31-2.38-5.31-5.31 0-2.93 2.38-5.31 5.31-5.31 2.93 0 5.31 2.38 5.31 5.31 0 2.93-2.38 5.31-5.31 5.31zm0-8.91c-1.99 0-3.6 1.62-3.6 3.6s1.62 3.6 3.6 3.6c1.99 0 3.6-1.62 3.6-3.6s-1.61-3.6-3.6-3.6zm13.3 26.42c-37.7 0-75.65-.44-113.17-1.32a.85.85 0 11.04-1.7c45.87 1.07 92.39 1.49 138.29 1.25.47 0 .85.38.85.85s-.38.85-.85.86c-8.37.04-16.76.06-25.16.06zM91.33 40.37c-.05 0-.11-.02-.16-.05-.13-.09-.17-.26-.08-.39 1.8-2.68 3.72-5.33 5.71-7.88.1-.12.28-.14.4-.05.12.1.14.28.05.4-1.99 2.53-3.9 5.17-5.69 7.84-.05.09-.14.13-.23.13zm-.67 9.32c-.05 0-.11-.02-.16-.05-.13-.09-.17-.26-.08-.39l11.39-17.18c.09-.13.26-.16.39-.08.13.09.17.26.08.39L90.89 49.57c-.05.08-.14.12-.23.12zm.32 7.42c-.06 0-.11-.02-.16-.05a.277.277 0 01-.07-.39l16.51-24.23a.29.29 0 01.39-.08c.13.09.16.27.07.39L91.21 56.98c-.05.08-.14.13-.23.13zm.35 7.72a.286.286 0 01-.22-.46c6.69-8.78 13.14-17.92 19.17-27.16.09-.13.26-.17.39-.08.13.09.17.26.08.39-6.04 9.25-12.5 18.4-19.2 27.19-.05.08-.14.12-.22.12zm-.5 9.29c-.06 0-.12-.02-.17-.05-.13-.09-.15-.27-.06-.4l18.9-25.82c.09-.13.27-.15.4-.06s.15.27.06.4L91.06 74c-.05.08-.14.12-.23.12zm1.22 5.54a.286.286 0 01-.22-.46l17.68-22.86c.1-.12.28-.15.4-.05.12.1.15.27.05.4L92.27 79.55c-.05.08-.14.11-.22.11zm4.94.86a.3.3 0 01-.18-.06.285.285 0 01-.04-.4l12.61-15.58c.1-.12.28-.14.4-.04s.14.28.04.4l-12.6 15.57c-.06.07-.14.11-.23.11zm5.97-.25a.284.284 0 01-.22-.47l7.55-8.7a.284.284 0 01.43.37l-7.55 8.7c-.05.06-.13.1-.21.1zm5.56-.16a.3.3 0 01-.18-.06.285.285 0 01-.04-.4l2.29-2.8c.1-.12.28-.14.4-.04s.14.28.04.4l-2.29 2.8c-.06.06-.14.1-.22.1z" fill="#252424"/><path d="M47.53 113.48c0-.02 0-.04-.01-.05 0 .02.01.04.01.07v-.02c0 .01 0 0 0 0z" fill="#252424" opacity=".129"/><path d="M52.24 10.02c-.03-2.83-.02-5.67-.04-8.5 0-.41-.16-.79-.45-1.08-.9-.94-2.65-.25-2.61 1.08-.03 14.43-.41 28.85-.7 43.27-.27 5.9-.41 11.79-.68 17.69-.02 5.53-.12 11.06-.17 16.59-.16 6.14-.16 12.3-.48 18.43-.22 3.89.1 7.79.14 11.68.07 2.04.08 3.04.27 4.25 0-.04-.01-.07-.01-.11.01.05.02.11.02.16v.01c0 .02.01.04.01.05 0 .03.01.07.01.1-.01-.03-.01-.09-.02-.15v.26c0 .21-.02.42-.03.64-.05.54.11 1.1.5 1.49 1.06 1.12 3.12.24 3-1.32-.01-.18-.03-.38-.09-.57-.04-.25-.08-.49-.13-.74-.02-.21-.06-.59-.06-.78v-.11c0-.05.01-.09.01-.14.28-3.81.17-7.64.1-11.45.06-3.85-.03-7.69-.03-11.54.17-12.6.3-25.21.69-37.8.25-5.51.68-11 .61-16.52.2-8.3.27-16.6.14-24.89zm30.53-2.53c-.01-1.87-.01-3.75-.02-5.62 0-.44-.18-.86-.49-1.17-.97-1.02-2.88-.27-2.83 1.17-.06 12.38-.02 24.76-.24 37.14.01 4.11.23 8.21.28 12.32.01 3.5-.23 7-.25 10.49 0 6.87-.36 13.73-.9 20.58-.23 6.83-.32 13.66-.24 20.49 0 2.91-.05 5.82-.01 8.73.08 1.5.1 1.41.53 3.37.09.49.36.94.79 1.18 1.17.72 2.75-.47 2.34-1.8-.49-2.01-.47-1.8-.44-3.69.03-11.49-.25-23.02.75-34.47.3-5.03.2-10.07.32-15.1.42-6.02.27-12.06.2-18.09.24-11.83.32-23.68.21-35.53zM40.04 95.16c.05-1.38-1.79-2.13-2.73-1.13-1.49 1.48-2.75 3.44-2.49 5.63.03 2.12 3.19 2.12 3.23 0-.2-1.42.48-2.04.73-2.48.48-.63 1.28-1.14 1.26-2.02zM70 94.2c-1.92.7-3.59 2.21-4.08 4.25-.17.88-.44 1.98.29 2.68.84.88 2.44.46 2.73-.72.37-1.5.14-1.04.76-2.01.01-.02.03-.03.05-.05.14-.15.3-.28.46-.41.64-.46 1.55-.54 2.02-1.19 1.19-1.45-.64-3.51-2.23-2.55zm29.45-.01c-1.07 1.35-2.16 2.75-2.53 4.47-.49 2.31 2.87 2.81 3.17.47.33-.97.21-.75 1.07-2.02.38-.64 1.11-1.15 1.19-1.92.3-1.65-2.09-2.46-2.9-1zm13.03 7.83c.04-7.13-.04-14.27-.02-21.41-.01-3.48-.06-6.96-.18-10.44-.09-.77.04-1.59-.04-2.36.03-1.24.06-2.48.11-3.72.01-6.57 0-13.15.32-19.71.34-7.54.27-15.1.37-22.65.04-4.15.39-8.29.31-12.43-.05-1.9-.1-3.79-.19-5.69-.11-.89.14-1.93-.55-2.62-.96-1.01-2.85-.27-2.8 1.16.37 6.49-.12 12.98-.3 19.47-.12 5.58.07 11.16-.08 16.74-.26 8.33-.29 16.66-.25 24.99-.04 1.17-.06 2.33-.09 3.5-.16.25-.26.55-.25.91.05 2.71.1 5.42.13 8.13 0 2.73.04 5.47.09 8.2.08 10.18.03 20.36-.22 30.53-.03 1.1 1.11 1.95 2.16 1.64.36-.1.61-.28.8-.5.28-.05.54-.17.74-.39.98-1.02.43-4.33.3-7.54-.17-1.94-.29-3.87-.36-5.81z" fill="#252424" opacity=".129"/></svg>
